X:121
T: Die Geburt im Grabe
N: Q0109B
O: Mitteleuropa, Deutschland (DDR) , Brandenburg, Luebben, Schoenwalde
N: Andere Aufzeichnung (Variante) von Q0109A.
R: Ballade, Schein - Tod, Geburt, Grab, Auferstehen; Zeitungs - Lied
M: none
L: 1/16
K: G
GG | d4d2c4A2 | A2G4z4
BB | d4B2B2d2c2 | c2B4z4
G2 | e2e2e2e2 | G2d2z2
g2 | d2B2d2c2B2A2 | A2G2

@@@ Tune index: 1414
